!!!OTL: Bettelmoench
!!!ARE: Europa, Mitteleuropa, Deutschland
!!!SCT: A0459
!!!YEM: Copyright 1995, estate of Helmut Schaffrath.
**kern
*ICvox
*Ivox
*M4/2
*k[b-]
*F:
{2f
=1
1f
1a
=2
1cc
2r
2cc
=3
2dd
2cc
2cc
2b-
=4
1a
2r}
{2a
=5
2a
2a
2a
2a
=6
1b-
2a
2a
=7
2a
2g
2g
2f
=8
1g
2r}
{2g
=9
2d
2d
1e
=10
1f
2r
2f
=11
2a
2a
2a
2a
=12
1f
2r}
{2f
=13
2b-
2b-
2b-
2b-
=14
1b-
2a
2g
=15
2a
2g
2g
2f
=16
1g
2r}
{2g
=17
2d
2d
2e
2e
=18
1f
2f
2f
=19
2a
2a
2b-
2g
=20
1.f}
==
!!!AGN: Romanze, Ballade, Lied
!! Forster II 1540 No. 22
!!!ONB: ESAC (Essen Associative Code) Database: ALTDEU
!!!AMT: simple quadruple
!!!AIN: vox
!!!EED: Helmut Schaffrath
!!!EEV: 1.0
*-
